X: 1008
T: Maggie Lauder
P: Maggie Lauder
C:Adam Craig's Coll. 1730
R:Strathspey (8x32)
B:RSCDS 10-8
Z:Anselm Lingnau <anselm@strathspey.org>
M:4/4
L:1/8
K:D
A|"D"d>e d<f d>e d<f|"Em"e>f g/f/e/d/ "A"c2 eg|\
  "D"f<d d>A "Bm"d>e df|"D"a>b "A7"a<g "D"f>g a>f|
  "G"g<a g>b "D"f<g f>a|"Em"e>f g/f/e/d/ "A"c2 eA|\
  "G"d/c/B/A/ "Em"B/A/G/F/ "A"G/F/E/D/ E>g|
                                           "D"f<a "A7"e>f "D"d2 d>e||\
  "D"f/g/a/f/ d>g f/g/a/f/ d>f|"Em"e>f g/f/e/d/ "A"c2 e>A |
  "D"f/g/a/f/ d>g f/g/a/f/ d/e/f/g/|"D"a>b "A"a/b/a/g/ "D"f2 "D7"f<a|\
  "G"g/f/g/a/ g/b/a/g/ "D"f/e/f/g/ f/a/g/f|
                                           "Em"e>f g/f/e/d/ "A"c2 c<e|\
  "G"d/c/B/A/ "Em"B/A/G/F/ "A"G/F/E/D/ eg|"D"f<a "A7"e>f "D"d2 d|]
%%center Book10/1008-Maggie_Lauder-AL.abc

%%sep 1 1 500
%%sep 1 1 500

